icons/twitter.svg

<svg width="53" height="53" viewBox="0 0 53 53" fill="none" xmlns="http://www.w3.org/2000/svg">
<path d="M44.7188 0H8.28125C3.70764 0 0 3.70764 0 8.28125V44.7188C0 49.2924 3.70764 53 8.28125 53H44.7188C49.2924 53 53 49.2924 53 44.7188V8.28125C53 3.70764 49.2924 0 44.7188 0Z" fill="#1DA1F2"/>
<path d="M39.75 18.2188C38.7563 18.7156 37.7625 18.8812 36.6031 19.0469C37.7625 18.3844 38.5906 17.3906 38.9219 16.0656C37.9281 16.7281 36.7687 17.0594 35.4437 17.3906C34.45 16.3969 32.9594 15.7344 31.4688 15.7344C27.9906 15.7344 25.3406 19.0469 26.1688 22.3594C21.6969 22.1937 17.7219 20.0406 14.9062 16.7281C13.4156 19.2125 14.2438 22.3594 16.5625 24.0156C15.7344 24.0156 14.9062 23.6844 14.0781 23.3531C14.0781 25.8375 15.9 28.1562 18.3844 28.8187C17.5563 28.9844 16.7281 29.15 15.9 28.9844C16.5625 31.1375 18.55 32.7937 21.0344 32.7937C19.0469 34.2844 16.0656 35.1125 13.25 34.7812C15.7344 36.2719 18.55 37.2656 21.5312 37.2656C31.6344 37.2656 37.2656 28.8187 36.9344 21.0344C38.0937 20.3719 39.0875 19.3781 39.75 18.2188Z" fill="white"/>
</svg>

<svg width="53" height="53" fill="none" xmlns="http://www.w3.org/2000/svg"><path d="M44.719 0H8.28A8.281 8.281 0 0 0 0 8.281V44.72A8.281 8.281 0 0 0 8.281 53H44.72A8.281 8.281 0 0 0 53 44.719V8.28A8.281 8.281 0 0 0 44.719 0Z" fill="#1DA1F2"/><path d="M39.75 18.219c-.994.497-1.987.662-3.147.828 1.16-.663 1.988-1.656 2.319-2.981-.994.662-2.153.993-3.478 1.325-.994-.994-2.485-1.657-3.975-1.657-3.478 0-6.128 3.313-5.3 6.625-4.472-.165-8.447-2.318-11.263-5.63-1.49 2.483-.662 5.63 1.656 7.287-.828 0-1.656-.332-2.484-.663 0 2.484 1.822 4.803 4.306 5.466-.828.165-1.656.331-2.484.165.662 2.153 2.65 3.81 5.134 3.81-1.987 1.49-4.968 2.319-7.784 1.987 2.484 1.49 5.3 2.485 8.281 2.485 10.103 0 15.735-8.447 15.403-16.232a7.654 7.654 0 0 0 2.816-2.815Z" fill="#fff"/></svg>
